svgs/solid/clipboard-list-check.svg

<svg xmlns="http://www.w3.org/2000/svg" viewBox="0 0 384 512"><!-- Font Awesome Pro 6.0.0-alpha2 by @fontawesome - https://fontawesome.com License - https://fontawesome.com/license (Commercial License) --><path d="M336 64H282.121C268.896 26.799 233.738 0 192 0S115.104 26.799 101.879 64H48C21.5 64 0 85.484 0 112V464C0 490.516 21.5 512 48 512H336C362.5 512 384 490.516 384 464V112C384 85.484 362.5 64 336 64ZM192 64C209.674 64 224 78.326 224 96C224 113.672 209.674 128 192 128S160 113.672 160 96C160 78.326 174.326 64 192 64ZM96 392C82.75 392 72 381.25 72 368S82.75 344 96 344S120 354.75 120 368S109.25 392 96 392ZM112 288C107.906 288 103.812 286.438 100.688 283.312L68.688 251.312C62.438 245.062 62.438 234.937 68.688 228.688S85.063 222.438 91.312 228.688L112 249.375L164.688 196.688C170.938 190.438 181.063 190.438 187.312 196.688S193.562 213.063 187.312 219.312L123.312 283.312C120.188 286.438 116.094 288 112 288ZM304 384H176C167.199 384 160 376.799 160 368C160 359.199 167.199 352 176 352H304C312.801 352 320 359.199 320 368C320 376.799 312.801 384 304 384ZM304 288H208C199.199 288 192 280.799 192 272C192 263.199 199.199 256 208 256H304C312.801 256 320 263.199 320 272C320 280.799 312.801 288 304 288Z"/></svg>

<svg xmlns="http://www.w3.org/2000/svg" viewBox="0 0 384 512"><!--! Font Awesome Pro 6.0.0-alpha3 by @fontawesome - https://fontawesome.com License - https://fontawesome.com/license (Commercial License) --><path d="M336 64h-53.88C268.9 26.8 233.7 0 192 0S115.1 26.8 101.9 64H48C21.5 64 0 85.48 0 112v352C0 490.5 21.5 512 48 512h288c26.5 0 48-21.48 48-48v-352C384 85.48 362.5 64 336 64zM192 64c17.67 0 32 14.33 32 32c0 17.67-14.33 32-32 32S160 113.7 160 96C160 78.33 174.3 64 192 64zM96 392c-13.25 0-24-10.75-24-24S82.75 344 96 344s24 10.75 24 24S109.3 392 96 392zM112 288C107.9 288 103.8 286.4 100.7 283.3l-32-32c-6.25-6.25-6.25-16.38 0-22.62s16.38-6.25 22.62 0L112 249.4l52.69-52.69c6.25-6.25 16.38-6.25 22.62 0s6.25 16.38 0 22.62l-64 64C120.2 286.4 116.1 288 112 288zM304 384h-128C167.2 384 160 376.8 160 368C160 359.2 167.2 352 176 352h128c8.801 0 16 7.199 16 16C320 376.8 312.8 384 304 384zM304 288h-96C199.2 288 192 280.8 192 272C192 263.2 199.2 256 208 256h96C312.8 256 320 263.2 320 272C320 280.8 312.8 288 304 288z"/></svg>
